X:736
T:Reel 736
M:4/4
K:Gmaj
L:1/8
d|gfgd BGG2|eaag fdef|g2dc BGGB|cedc BGGf|gfgd BGGd|eaag fdcA|GABc dedB|cedc BGG|c|dggf gabg|dggb agef|gfgd BgdB|cedc BGGG|dggf ggfg|abag fdef|dfef gage|dBAc BGG|
